src/lib/packages/icons/src/assets/line/sticky-note-circle-frown.svg

<svg xmlns="http://www.w3.org/2000/svg" width="24" height="24" fill="none"><path fill="currentColor" d="M13.76 10a1.25 1.25 0 1 1 2.5 0 1.25 1.25 0 0 1-2.5 0Zm-3.5 0a1.25 1.25 0 0 0-2.5 0c0 .69.57 1.25 1.25 1.25s1.25-.56 1.25-1.25Zm4.41 5.31c.18-.37.02-.82-.35-1a5.363 5.363 0 0 0-4.66.02c-.37.18-.52.63-.34 1.01.13.26.4.42.67.42.11 0 .23-.02.33-.08 1.02-.51 2.27-.52 3.34 0 .37.18.82.02 1-.35l.01-.02ZM22.74 12v.51c0 1.8-.7 3.5-1.98 4.77l-3.48 3.48a6.736 6.736 0 0 1-4.77 1.98H12c-2.93 0-5.66-1.16-7.71-3.25-2.04-2.1-3.12-4.87-3.04-7.8.16-5.6 4.84-10.29 10.44-10.44 2.95-.08 5.7 1 7.8 3.04 2.1 2.04 3.25 4.78 3.25 7.71ZM12.5 21.25c.6 0 1.18-.12 1.74-.31V19c0-2.62 2.13-4.75 4.75-4.75h1.94c.19-.55.31-1.13.31-1.74V12c0-2.52-1-4.87-2.8-6.63a9.193 9.193 0 0 0-6.45-2.62h-.26c-4.82.13-8.85 4.16-8.98 8.98-.07 2.52.86 4.91 2.62 6.71a9.163 9.163 0 0 0 6.63 2.8h.51l-.01.01Zm7.2-5.02c.15-.15.26-.32.39-.48h-1.1c-1.79 0-3.25 1.46-3.25 3.25v1.1c.16-.13.33-.24.48-.39l3.48-3.48Z"/></svg>

<svg width="24" height="24" viewBox="0 0 24 24" fill="none" xmlns="http://www.w3.org/2000/svg">
<path d="M13.76 10C13.76 9.31 14.31 8.75 15.01 8.75C15.7 8.75 16.26 9.31 16.26 10C16.26 10.69 15.7 11.25 15.01 11.25C14.32 11.25 13.76 10.69 13.76 10ZM10.26 10C10.26 9.31 9.70001 8.75 9.01001 8.75C8.32001 8.75 7.76001 9.31 7.76001 10C7.76001 10.69 8.33001 11.25 9.01001 11.25C9.69001 11.25 10.26 10.69 10.26 10ZM14.67 15.31C14.85 14.94 14.69 14.49 14.32 14.31C12.83 13.6 11.1 13.62 9.66 14.33C9.29 14.51 9.14 14.96 9.32 15.34C9.45 15.6 9.71999 15.76 9.98999 15.76C10.1 15.76 10.22 15.74 10.32 15.68C11.34 15.17 12.59 15.16 13.66 15.68C14.03 15.86 14.48 15.7 14.66 15.33L14.67 15.31ZM22.74 12V12.51C22.74 14.31 22.04 16.01 20.76 17.28L17.28 20.76C16 22.03 14.31 22.74 12.51 22.74H12C9.07 22.74 6.34 21.58 4.29 19.49C2.25 17.39 1.17 14.62 1.25 11.69C1.41 6.09 6.09 1.4 11.69 1.25C14.64 1.17 17.39 2.25 19.49 4.29C21.59 6.33 22.74 9.07 22.74 12ZM12.5 21.25C13.1 21.25 13.68 21.13 14.24 20.94V19C14.24 16.38 16.37 14.25 18.99 14.25H20.93C21.12 13.7 21.24 13.12 21.24 12.51V12C21.24 9.48 20.24 7.12999 18.44 5.36999C16.7 3.67999 14.42 2.75 11.99 2.75C11.9 2.75 11.81 2.75 11.73 2.75C6.91001 2.88 2.88 6.91001 2.75 11.73C2.68 14.25 3.60999 16.64 5.36999 18.44C7.12999 20.25 9.48 21.24 12 21.24H12.51L12.5 21.25ZM19.7 16.23C19.85 16.08 19.96 15.91 20.09 15.75H18.99C17.2 15.75 15.74 17.21 15.74 19V20.1C15.9 19.97 16.07 19.86 16.22 19.71L19.7 16.23Z" fill="currentColor"/>
</svg>
